X: 4360
T: SAILORS' CHORUS. (Flying Dutchman.)
%R: air, march
B: James Kerr "Merry Melodies" v.4 p.38 #360
Z: 2016 John Chambers <jc:trillian.mit.edu>
N: There's an end-repeat at the very end; the begin-repeat is unclear. It could be at any of the 3 double bars.
M: 2/4
L: 1/16
K: C
|:\
edcz e4- | e2d2c2 z2 | fedz f4- | f2e2d2 z2 |\
(g2>>a2) (g2>>a2) | (g2>>a2) g4 | fedz edcz | de^fz g4 :|\
gecd e2d2 | d3c c4 | Gced d2c2 | Bag2 g4 |
gecd e2d2 | d3c c4 | Aced cecA |  ^FDFA d2z2 |\
G2GG g4 | _edcz d4 | G2GG g4 | _edcz d4 |\
_B2BB _b4 | gf_ez fedz | _edcz d^cdz | G2GG G2GG |
G2G2G2G2 ||\
edcz e4- | e2d2c2 z2 | fedz f4- | f2e2d2 z2 |\
(g2>>a2) (g2>>a2) | (g2>>a2) g4 | fedz edcz | gabz c'4 ||\
G2GG G2G2 | G2GG G2G2 | G4 a3a |
g2e2c2G2 | edc2 c2G2 | c8 |\
G4 f3f | d2B2G2g2 | edc2 c2e2 | G8 |\
G4 a3a | g2e2c2G2 | edc2 c2G2 | c8 |\
G4 f3f | d2B2G2g2 | edc2 d2g2 | c2e2c2 z2 :|

%%sep 1 1 500
%%sep 1 1 500

